X: 18643
T: I Would Rather Than Ireland
R: waltz
M: 3/4
K: Dminor
(F3/2G/2)|A2 A2 (de)|f2 A2 A2|f2 (gf) (ed)|^c2 A2 (=Bc)|
(d3e) (fe)|d2 (cB)(AG)|G2 c2 B2|A4 (FG)|
A2 B2 (AG)|c2 (BA)(GF)|(G3B) (AG)|(F3/2E/2 D2) (FG)|
A2 f2 e2|d2 A2 F2|(GB) (AG) (FE)|D4 z2||

